!!!COM: Haydn, Franz Joseph
!!!CDT: 1732/03/31/-1809/05/31/
!!!CNT: Austrian
!!!OTL: Sonata No. 34 in D major
!!!SCT: Hob. XVI:33
!!!OMV: Mvmt. 1
!!!OMD: Allegro
!!!ODT: ~1777///
!!!SMS: Universal Edition 2, Haydn Piano Sonatas, Vol. 2, No. 11
!!!ONB: Stich und Druck von Jos. Eberle & Co. Wien VII. Seidengasse 3-9
**kern	**kern	**dynam
*staff2	*staff1	*staff1
*>[A,A1,A,A2,B]	*>[A,A1,A,A2,B]	*>[A,A1,A,A2,B]
*>norep[A,A2,B]	*>norep[A,A2,B]	*>norep[A,A2,B]
*>A	*>A	*>A
*clefF4	*clefG2	*clefG2
*k[f#c#]	*k[f#c#]	*k[f#c#]
*D:	*D:	*D:
*M2/4	*M2/4	*M2/4
*MM120	*MM120	*MM120
8r	(32A/LLL	f
.	32d/	.
.	32f#/	.
.	32a/JJJ	.
=1	=1	=1
4DD/ 4D/	8f#/L	.
.	8d/J)	.
8r	8dd`/L	.
*clefG2	*	*
8d`/ 8f#`/	8a`/J	.
=2	=2	=2
8d/ 8g/L	(8b/L	.
8d/ 8f#/J	8a/J)	.
4r	8r	.
.	(32A/LLL	.
.	32d/	.
.	32f#/	.
.	32a/JJJ	.
*clefF4	*	*
=3	=3	=3
4DD/ 4D/	8f#/L	.
.	8d/J)	.
8r	8ff#`\ 8aa`\L	.
8d`\	8dd`\ 8ff#`\J	.
=4	=4	=4
8A\L	8ee\ (8gg\L	.
&(8d\J&)	8dd\ 8ff#\J)	.
4r	8r	.
.	(32dd\LLL	.
.	32ff#\	.
.	32aa\	.
.	32ddd\JJJ	.
=5	=5	=5
8r	4.ccn\)	.
8F#\ 8d\L	.	.
8F#\ 8d\J	.	.
8r	(32cccn\LLL	.
.	32aa\	.
.	32ff#\	.
.	32cc\JJJ	.
=6	=6	=6
8r	4.b\)	.
8G\ 8d\L	.	.
8G\ 8d\J	.	.
8r	(32b\LLL	.
.	32dd\	.
.	32gg\	.
.	32bb\JJJ	.
=7	=7	=7
4A\	8ff#`\ 8aa`\L)	.
.	8dd`\ 8ff#`\J	.
4AA/	8ee`\ 8gg`\L	.
.	8cc#`\ 8ee`\J	.
=8	=8	=8
4D\	4cc#\ (4ee\	.
&(8DD/&)	8dd\ 8ff#\)	.
8r	(32dd\LLL	.
.	32ff#\	.
.	32aa\	.
.	32ddd\JJJ	.
=9	=9	=9
8r	4.ccn\)	.
8F#\ 8d\L	.	.
8F#\ 8d\J	.	.
8r	(32cccn\LLL	.
.	32aa\	.
.	32ff#\	.
.	32cc\JJJ	.
=10	=10	=10
8r	4.b\)	.
8G\ 8d\L	.	.
8G\ 8d\J	.	.
8r	(24bb\LL	.
.	24ccc#\	.
.	24ddd\JJ	.
=11	=11	=11
8A\	24ccc#\LL	.
.	24bb\	.
.	24aa\	.
8r	24gg\	.
.	24ff#\	.
.	24ee\JJ	.
8AA/	24dd\LL	.
.	24cc#\	.
.	24b\JJ	.
8r	32a/LLL	.
.	32g/	.
.	32f#/	.
.	32e/JJJ	.
=12	=12	=12
4DD/	4d/)	p
4r	8r	.
.	(8A/	.
=13	=13	=13
2r	16d/LL	.
.	&(16c#/&)	.
.	16e/	.
.	&(16d/JJ&)	.
.	16f#/LL	.
.	&(16e/&)	.
.	16g/	.
.	&(16f#/JJ&)	.
=14	=14	=14
8r	4d/ 4f#/	.
8G#\L	.	.
&(8A\J&)	&(8c#/&) 8e/)	.
8r	(8A/	.
=15	=15	=15
2r	16e/LL	.
.	&(16d#/&)	.
.	16f#/	.
.	&(16e/JJ&)	.
.	16g/LL	.
.	&(16f#/&)	.
.	16a/	.
.	16g/JJ	.
=16	=16	=16
8r	4e/ 4g/	.
8C#/L	.	.
&(8D/J&)	&(8dn/&) 8f#/)	.
8r	(8d/	.
=17	=17	=17
2r	16g/LL	<
.	&(16f#/&)	.
.	16a/	.
.	&(16g/JJ&)	.
.	16b\LL	.
.	&(16a\&)	.
.	16ccn\	.
.	&(16b\JJ&)	.
=18	=18	=18
(16G\LL	8b`\L)	.
16d\	.	.
16G\	(16b\L	mf
16d\JJ	16dd\JJ	.
16F#\LL	8a/)	.
16d\	.	.
16F#\	8r	.
16d\JJ	.	.
=19	=19	=19
16B\LL	8g`/L	.
16d\	.	.
16B\	16g/L	.
16d\JJ	16b/JJ	.
16A\LL	&(8f#/&)	.
16d\	.	.
16A\	8r	.
16d\JJ	.	.
=20	=20	=20
(16G\LL)	8b`\L	.
16d\	.	.
16G\	16b\L	.
16d\JJ	16dd\JJ	.
16F#\LL	&(8a/&)	.
16d\	.	.
16F#\	8r	.
16d\JJ	.	.
=21	=21	=21
16B\LL	8g`/L	.
16d\	.	.
16B\	16g/L	.
16d\JJ	16b/JJ	.
16A\LL	&(8f#/&)	.
16d\	.	.
16A\	8r	.
16d\JJ	.	.
=22	=22	=22
4G\)	16d#/LL	.
.	16e/	<
.	16f#/	.
.	16g/JJ	.
8r	16a/LL	.
.	16b/	.
8GG/ 8G/	16g/	.
.	16e/JJ	.
=23	=23	=23
[2AA/ (2F#/	2dn/	>
=24	=24	=24
8AA/] 8E/)	&(8c#/&)	.
8r	8r	.
4r	8r	.
.	32e/LLL	f
.	32a/	.
.	32cc#/	.
.	32ee/JJJ	.
=25	=25	=25
8AA`\ 8C#`\ 8E`\ 8A`\	&(8cc#`\&)	.
8r	(32a\LLL	.
.	32cc#\	.
.	32ee\	.
.	32aa\JJJ	.
8AA`\ 8C#`\ 8E`\ 8A`\	8ee`\)	.
8r	(32ee\LLL	.
.	32aa\	.
.	32ccc#\	.
.	32eee\JJJ	.
=26	=26	=26
8AA`\ 8C#`\ 8E`\ 8A`\	8ccc#`\)	.
8r	8r	.
4r	8r	.
.	(32a/LLL	mf
.	32e/	.
.	32c#/	.
.	32A/JJJ	.
=27	=27	=27
16AA/LL	2G/	.
16E/	.	.
16D/	.	.
16E/JJ	.	.
16C#/LL	.	.
16E/	.	.
16AA/	.	.
16C#/JJ	.	.
=28	=28	=28
&(4D/&)	(16F#/LL)	.
.	16B/	.
.	16A#/	.
.	16B/JJ	.
4r	16c#/LL	.
.	16B/	.
.	16A#/	.
.	16B/JJ	.
=29	=29	=29
16D#\LL	2An/	.
16F#\	.	.
16E\	.	.
16F#\JJ	.	.
16D#\LL	.	.
16F#\	.	.
16BB\	.	.
16D#\JJ	.	.
=30	=30	=30
&(4E\&)	16G#/LL)	.
.	(16e/	.
.	16d#/	.
.	16e/JJ	.
4r	16f#/LL	.
.	16e/	.
.	16d#/	.
.	16e/JJ	.
=31	=31	=31
16F#\LL	8d#/L	.
16cn\	.	.
16F#\	8a/J)	.
16c\JJ	.	.
16F#\LL	8r	.
16c\	.	.
16F#\	(8d#/	.
16c\JJ	.	.
=32	=32	=32
16G#\LL	8e`/L)	.
16B\	.	.
16G#\	(16e/L	.
16B\JJ	16b/JJ	.
16G#\LL	8e`/L)	.
16B\	.	.
16G#\	8e`/J	.
16B\JJ	.	.
=33	=33	=33
&(16F#\LL&)	(8d#^/L	.
16cn\	.	.
16F#\	8a/J)	.
16c\JJ	.	.
16F#\LL	8r	.
16c\	.	.
16F#\	(8d#/	.
16c\JJ	.	.
=34	=34	=34
16G#\LL	8e`/L)	.
16B\	.	.
16G#\	(16e/L	.
16B\JJ	16b/JJ	.
16G#\LL	8e`/L)	.
16B\	.	.
16G#\	8dn`/J	.
16B\JJ	.	.
=35	=35	=35
&(16A\LL&)	8c#`/L	.
16c#\	.	.
16A\	8ee`/J	.
16c#\JJ	.	.
16A\LL	8r	.
16c#\	.	.
16A\	(8a/	<
16c#\JJ	.	.
=36	=36	=36
16B\LL	8g#\L)	.
16d\	.	.
16B\	(16g#\L	.
16d\JJ	16ee\JJ	.
16B\LL	8g#`/L)	.
16d\	.	.
16B\	8g#`/J	.
16d\JJ	.	.
=37	=37	=37
16c#\LL	8a`\L	.
16e\	.	.
16c#\	(16a\L	.
16e\JJ	16ee\JJ	.
16c#\LL	8a`/L)	.
16e\	.	.
16c#\	8a`/J	.
16e\JJ	.	.
=38	=38	=38
16G#\LL	8b`\L	.
16e\	.	.
16G#\	(16b\L	.
16e\JJ	16ee\JJ	.
16G#\LL	8b`\L)	.
16e\	.	.
16G#\	8dd`\J	.
16e\JJ	.	.
=39	=39	=39
&(4A\&)	16cc#\LL	f
.	16dd\	.
.	16ee\	.
.	16cc#\JJ	.
4r	16b/LL	.
.	16a/	.
.	16g#/	.
.	16f#/JJ	.
=40	=40	=40
4G#\ 4B\	16e/LL	.
.	16d/	.
.	16e/	.
.	16f#/JJ	.
4r	16e/LL	.
.	16dn/	.
.	16c#/	.
.	16B/JJ	.
=41	=41	=41
*^	*	*
4r	4AA\ 4A\	16c#/LL	.
.	.	16d/	.
.	.	16e/	.
.	.	16c#/JJ	.
16B/LL	4r	4r	.
16A/	.	.	.
16G#/	.	.	.
16F#/JJ	.	.	.
*v	*v	*	*
=42	=42	=42
16E\LL	2r	.
16D#\	.	.
16E\	.	.
16F#\JJ	.	.
16E\LL	.	.
16Dn\	.	.
16C#\	.	.
16BB\JJ	.	.
=43	=43	=43
4AA/	(16cc#\LL	.
.	16dd\	.
.	16ee\	.
.	16cc#\JJ	.
4r	16b/LL	.
.	16a/	.
.	16g#/	.
.	16a/JJ	.
=44	=44	=44
4d\	16ff#\LL	.
.	16gg#\	.
.	16aa\	.
.	16ff#\JJ	.
4r	16ee\LL	.
.	16dd\	.
.	16cc#\	.
.	16b\JJ	.
=45	=45	=45
4DD/	16a#\LL	.
.	16b\	.
.	16cc#\	.
.	16b\JJ)	.
4r	16dd\LL	.
.	16cc#\	.
.	(16ee\	.
.	16dd\JJ)	.
=46	=46	=46
2r	8ff#'\	.
.	8r	.
.	(16ee\LL	.
.	16dd\	.
.	16cc#\	.
.	16b\JJ	.
=47	=47	=47
*^	*	*
4.A/	8r	4a/	.
.	8C#\L	.	.
.	8D\	4b\	.
8G#/	8E\J	.	.
*v	*v	*	*
=48	=48	=48
8AA\ &(8A\&)	(16cc#\LL)	.
.	16dd\	.
8r	16ee\	.
.	16cc#\JJ	.
8c#\	16b/LL	.
.	16a/	.
8r	16g#/	.
.	16a/JJ	.
=49	=49	=49
4d\	16ff#\LL	.
.	16gg#\	.
.	16aa\	.
.	16ff#\JJ	.
4r	16ee\LL	.
.	16dd\	.
.	16cc#\	.
.	16b\JJ	.
=50	=50	=50
4D\	16a#\LL	>
.	16b\	.
.	16cc#\	.
.	16b\JJ)	.
4r	16dd\LL	.
.	16cc#\	.
.	(16ee\	.
.	16dd\JJ)	.
=51	=51	=51
2r	8ff#\	.
.	8r	.
.	16dd\LL	p
.	16cc#\	.
.	(16ee\	.
.	16dd\JJ)	.
=52	=52	=52
2r	8ff#\	.
.	8r;	.
.	(16dd\LL	pp
.	16cc#\	.
.	16ee\	.
.	16dd\JJ	.
=53	=53	=53
4.r	4.ff#;\)	.
.	(e#q/	.
8r	8ee#\)	f
=54	=54	=54
.	(f#q/	.
2r	(8ff#\L)	.
.	a#q/	.
.	(8aa#\J)	.
.	bq/	.
.	(8bb\L)	.
.	cc#q/	.
.	8ccc#\J)	.
*clefG2	*	*
=55	=55	=55
.	(ddq/	.
8d/ 8f#/ 8b/L	8.ddd\L)	.
8d/ 8f#/ 8b/	.	.
.	16ddd\Jk	.
8d/ 8f#/ 8b/	(16ddd\LL	.
.	16bb\	.
8d/ 8f#/ 8b/J	(16ddd\)	.
.	16bb\JJ)	.
=56	=56	=56
8e/ 8a/ 8cc#/L	(8.ee\L	.
8e/ 8a/ 8cc#/	.	.
.	32aa\LL	.
.	32ccc#\JJJ	.
8e/ 8a/ 8cc#/	8.eee\L)	.
8e/ 8a/ 8cc#/J	.	.
.	(32aa\LL	.
.	32bb\JJJ	.
=57	=57	=57
.	ccc#q/	.
8e/ 8g#/ 8b/L	2bb\	.
8e/ 8g#/ 8b/	.	.
8e/ 8g#/ 8b/	.	.
8e/ 8g#/ 8b/J	.	.
=58	=58	=58
(16A/LL	4aa\)	.
16a/	.	.
16g#/	.	.
16a/JJ	.	.
16c#/LL	8r	.
16a/	.	.
16g#/	8ee\	.
16a/JJ	.	.
=59	=59	=59
16d/LL	8ff#\L	.
16a/	.	.
16c#/	&(8ee\J&)	.
16a/JJ	.	.
16d/LL	8ff#\L	.
16a/	.	.
16c#/	&(8ee\J&)	.
16a/JJ	.	.
=60	=60	=60
4B/) 4g#/	4ee\ 4gg#\ 4bb\ 4ddd\	f
8r	8r	.
8A/ 8a/	8ccc#\	.
=61	=61	=61
8d/ 8f#/	(8bb\L	.
8r	8ddd\J)	.
*clefF4	*	*
8E\ 8e\	(8ee\L	.
8r	8ddn\ 8gg#\J	.
*clefG2	*	*
=62	=62	=62
(16A/LL	4cc#\ 4aa\)	.
16a/	.	.
16g#/	.	.
16a/JJ	.	.
16c#/LL	8r	.
16a/	.	.
16g#/	8ee\	.
16a/JJ	.	.
=63	=63	=63
16d/LL	8ff#\L	.
16a/	.	.
16c#/	&(8ee\J&)	.
16a/JJ	.	.
16d/LL	8ff#\L	.
16a/	.	.
16c#/	&(8ee\J&)	.
16a/JJ	.	.
=64	=64	=64
4B/) 4g#/	4ee\ 4gg#\ 4bb\ 4ddd\	.
8r	8r	.
8A/ 8a/	8ccc#\	.
=65	=65	=65
8d/ 8f#/	(8bb\L	.
8r	8ddd\J)	.
*clefF4	*	*
8E\ 8e\	(8ee\L	.
8r	8ddn\ 8gg#\J	.
=66	=66	=66
8AA\ 8A\	8cc#\ 8aa\)	.
8r	8r	.
8E\ 8d\	16r	.
.	(16e/LL	p
8r	16g#/)	.
.	16ee/JJ	.
=67	=67	=67
8E\ 8c#\	16r	.
.	16e/LL	.
8r	16a/	.
.	16ee/JJ	.
8E\ 8B\	16r	.
.	(16B/LL	.
8r	16d/	.
.	16g#/JJ	.
=68	=68	=68
*>A1	*>A1	*>A1
4AA\ 4A\	4c#/) 4a/	.
8r	8r	.
=69:|!	=69:|!	=69:|!
*>A2	*>A2	*>A2
4AA\ 4A\	4c#/ 4a/	p
4r	4r	.
=70	=70	=70
*>B	*>B	*>B
2FFF#/ 2FF#/	2r	.
*	*clefF4	*clefF4
=71	=71	=71
*^	*	*
4r	[2FF#\	4r	.
8r	.	(8F#\L	p
8E/	.	8A#\J)	.
=72	=72	=72	=72
(8D/L	2FF#\]	(8B\L	.
8BB/J)	.	8d\J)	.
8AA#`/L	.	8c#`\L	.
8C#`/J	.	8e`\J	.
*	*	*clefG2	*clefG2
=73	=73	=73	=73
4BB/	4BB\	(8d/L	.
.	.	8f#/J)	.
4r	4r	8r	.
.	.	(32d/LLL	.
.	.	32f#/	.
.	.	32b/	.
.	.	32dd/JJJ	.
*v	*v	*	*
=74	=74	=74
4r	8b/L	.
.	8f#/J)	.
8r	8ff#`\L	.
*clefG2	*	*
8d`/ 8f#`/	8b`\J	.
=75	=75	=75
8d/ 8gn/L	(8cc#\L	.
8d/ 8f#/J	8b\J)	.
4r	8r	.
.	(32d/LLL	.
.	32f#/	.
.	32b/	.
.	32dd/JJJ	.
=76	=76	=76
4r	8b/L	.
.	8f#/J)	.
8r	8bb`\L	.
*clefF4	*	*
8D`\ 8F#`\	8ff#`\J	.
=77	=77	=77
8C#\ 8E\L	(8ggn\L	.
8D\ &(8F#\J&)	8ff#\J)	.
4r	8r	.
.	(32b\LLL	.
.	32dd\	.
.	32ff#\	.
.	32bb\JJJ	.
=78	=78	=78
4r	8ff#\L	.
.	8dd\J)	.
*clefG2	*	*
8b`\ 8dd`\L	8gg\L	.
8a`\ 8cc#`\J	8ff#`\J	.
=79	=79	=79
(8g/ 8b/L	(8ee\L	.
8f#/) 8a/J	8dd\J)	.
4r	4r	.
*clefF4	*	*
=80	=80	=80
[2D\	16r	.
.	(16cn/LL	f
.	16B/	.
.	16c/JJ	.
.	16d/LL	.
.	16c/	.
.	16e/	.
.	16c/JJ)	.
=81	=81	=81
*^	*	*
[2B/	2D\]	16r	.
.	.	(16g/LL	.
.	.	16f#/	.
.	.	16g/JJ	.
.	.	16a/LL	.
.	.	16g/	.
.	.	16b/	.
.	.	16g/JJ	.
=82	=82	=82	=82
(16B/LL]	2D#\	2f#/)	.
16A/	.	.	.
16G#/	.	.	.
16A/JJ	.	.	.
16B/LL	.	.	.
16A/	.	.	.
16cn/	.	.	.
16A/JJ	.	.	.
=83	=83	=83	=83
4Gn/)	2E\	16B/LL	.
.	.	16e/	.
.	.	16d#/	.
.	.	16e/JJ	.
4G/	.	16f#/LL	.
.	.	16e/	.
.	.	16g/	.
.	.	16e/JJ	.
*v	*v	*	*
=84	=84	=84
16r	&(2g\&) 2ee\	.
(16c#\LL	.	.
16B\	.	.
16c#\JJ	.	.
16d\LL	.	.
16c#\	.	.
16e\	.	.
16B\JJ	.	.
=85	=85	=85
(2A#\ [2f#\)	16r	.
.	16ee\LL	.
.	16dd#\	.
.	16ee\JJ	.
.	16ff#\LL	.
.	16ee\	.
.	16gg\	.
.	16ee\JJ	.
=86	=86	=86
4B\) 4f#\]	&(16ddn\LL&)	.
.	16bb\	.
.	16aa#\	.
.	16bb\JJ	.
(4Gn\ 4e#\	16ccc#\LL	.
.	16bb\	.
.	16ddd\	.
.	16bb\JJ	.
=87	=87	=87
4F#\) 4f#\	16aa#\LL	.
.	16ccc#\	.
.	16ff#\	.
.	16aa#\JJ	.
4r	16cc#\LL	.
.	16ff#\	.
.	16a#\	.
.	16cc#\JJ	.
=88	=88	=88
4FF#/	&(4f#/&)	.
4r	8r	.
.	(8f#/	p
=89	=89	=89
2r	16b\LL	.
.	16a#\	.
.	16cc#\	.
.	&(16b\JJ&)	.
.	16dd\LL	.
.	&(16cc#\&)	.
.	16ee\	.
.	&(16dd\JJ&)	.
=90	=90	=90
8r	4b\ 4dd\	.
8E#\L	.	.
&(8F#\J&)	8a#\ 8cc#\)	.
8r	(8f#/	.
=91	=91	=91
2r	16cc#\LL	.
.	&(16b\&)	.
.	16dd\	.
.	&(16cc#\JJ&)	.
.	16ee\LL	.
.	16dd\	.
.	&(16ff#\&)	.
.	&(16ee\JJ&)	.
=92	=92	=92
8r	4cc#\ 4ee\	.
8A#\L	.	.
&(8B\J&)	8b\ 8dd\)	.
8r	(8b\	.
=93	=93	=93
8r	16ee\LL	.
.	&(16dd#\&)	.
8B`\	16ff#\	.
.	&(16ee\JJ&)	.
8e`\L	16gg\LL	.
.	16ff#\	.
8f#`\J	&(16aa\&)	.
.	&(16gg\JJ&)	.
=94	=94	=94
8g\	16bb\LL	.
.	16aa\	.
8r	16gg\	.
.	16ff#\JJ	.
8E\	16ee\LL	.
.	16dd\	.
8r	16cc#\	.
.	16b\JJ)	<
=95	=95	=95
8A`\L	(16cc#\LL	.
.	16b\)	.
8B`\J	16dd\	.
.	16cc#\JJ	.
8c#`\L	(16ee\LL	.
.	16dd\)	.
8d`\J	(16ff#\	.
.	16ee\JJ)	.
=96	=96	=96
4e\	16gg\LL	.
.	16ff#\	.
.	16ee\	.
.	16dd\JJ	.
8r	16cc#\LL	.
.	16b\	.
8AA`/	16a\	.
.	&(16g\JJ&)	.
=97	=97	=97
8D`\L	(16f#/LL	.
.	16e/)	.
8E`\J	(16g/	.
.	16f#/JJ)	.
8F#`\L	(16a/LL	.
.	16g/)	.
8G`\J	(16b/	.
.	16a/JJ)	.
=98	=98	=98
4A\	16ccn/LL	.
.	16b/	.
.	16a/	.
.	16g/JJ	.
8r	16f#/LL	.
.	16e/	.
8D\	16d/	.
.	16cn/JJ	.
=99	=99	=99
4G\	&(16B/LL&)	f
.	(16b/	.
.	16a#/	.
.	16b/JJ	.
4r	16an/LL	.
.	16g/	.
.	16f#/	.
.	16e/JJ	.
=100	=100	=100
4GG/	16d#/LL	.
.	16e/	.
.	16f#/	.
.	16e/JJ	.
4r	16g/LL	.
.	16f#/	.
.	16e/	.
.	16dn/JJ	.
=101	=101	=101
16AA/LL	2d/	.
16BB/	.	.
16C#/	.	.
16D/JJ	.	.
16E\LL	.	.
16F#\	.	.
16G\	.	.
16F#\JJ	.	.
=102	=102	=102
&(4G\&)	(16c#/LL)	.
.	16A/	.
.	16e/	.
.	16c#/JJ	.
4r	16g/LL	.
.	16e/	.
.	16cc#/	.
.	16g/JJ	.
=103	=103	=103
2r	16ee\LL	.
.	16cc#\	.
.	16gg\	.
.	16ee\JJ	.
.	8bb`\)	.
.	8r	.
=104	=104	=104
2r	4r	.
.	16r	.
.	(16aa#\LL	p
.	16bb\	.
.	16aa#\JJ	.
=105	=105	=105
2r	8bb\)	.
.	8r	.
.	16r	.
.	(16aa#\LL	.
.	16bb\	.
.	16aa#\JJ	.
=106	=106	=106
2r	8bb\)	.
.	8r	.
.	16r	.
.	(16aa#\LL	.
.	16bb\	.
.	16aa#\JJ	.
=107	=107	=107
2r	16bb\LL	<
.	16ccc#\	.
.	16ddd\	.
.	16ccc#\JJ	.
.	16bb\LL	.
.	16aan\	.
.	16gg\	.
.	16ff#\JJ	.
*clefG2	*	*
=108	=108	=108
16b\LL	(16gg\LL)	.
16cc#\	16aa\	.
16dd\	16bb\	.
16cc#\JJ	16aa\JJ	.
16b/LL	16gg\LL	.
16a/	16ff#\	.
16g/	16ee\	.
16f#/JJ	16dd#\JJ	.
=109	=109	=109
16g/LL	16ee\LL	.
16a/	16ff#\	.
16b/	16gg\	.
16a/JJ	16ff#\JJ	.
16g/LL	16ee\LL	.
16f#/	16ddn\	.
16e/	16cc#\	.
16d/JJ	16b\JJ	.
*clefF4	*	*
=110	=110	=110
&(4.c#\&)	(16a/LL)	f
.	16b/	.
.	16g#/	.
.	16b/JJ	.
.	16a/LL	.
.	16b/	.
8d\	16g#/	.
.	16b/JJ	.
=111	=111	=111
8c#\L	16a/LL	.
.	16b/	.
8d\J	16g#/	.
.	16b/JJ	.
8c#\L	16a/LL	.
.	16b/	.
8d#\J	16f#/	.
.	16a/JJ	.
=112	=112	=112
*^	*	*
&(4.e/&)	[2A\	(16gn/LL)	.
.	.	16a/	.
.	.	16f#/	.
.	.	16a/JJ	.
.	.	16g/LL	.
.	.	16a/	.
8d#/	.	16f#/	.
.	.	16a/JJ	.
=113	=113	=113	=113
8e/L	2A\_	16g/LL	>
.	.	16a/	.
8d#/J	.	16f#/	.
.	.	16a/JJ	.
8e/L	.	16g/LL	.
.	.	16a/	.
8d#/J	.	16f#/	.
.	.	16a/JJ	.
=114	=114	=114	=114
&(8.e/L&)	2A\_	8.g/L)	.
16d#/Jk	.	(16f#/Jk	.
8.e/L	.	8.g/L	.
16d#/Jk	.	16f#/Jk	.
=115	=115	=115	=115
8.e/L	2A\_	8.g/L	.
16d#/Jk	.	16f#/Jk	.
16e/LL	.	16g/LL	.
16d#/	.	16f#/	.
16e/	.	16g/	.
16d#/JJ	.	16f#/JJ	.
=116	=116	=116	=116
&(4e/&)	4A\]	4g/)	.
4r	4r	4r	.
*v	*v	*	*
=117	=117	=117
32A\LLL	8r	.
32c#\	.	.
32e\	.	.
32g\JJJ	.	.
8r	32a\LLL	.
.	32cc#\	.
.	32ee\	.
.	32gg\JJJ	.
8r;	8r;	.
8r	(32A/LLL	.
.	32d/	.
.	32f#/	.
.	32a/JJJ	.
=118	=118	=118
4DD/ 4D/	8f#/L	f
.	8d/J)	.
8r	8dd`/L	.
*clefG2	*	*
8d`/ 8f#`/	8a`/J	.
=119	=119	=119
8d/ 8g/L	(8b/L	.
8d/ &(8f#/J&)	8a/J)	.
4r	8r	.
.	(32A/LLL	.
.	32d/	.
.	32f#/	.
.	32a/JJJ	.
*clefF4	*	*
=120	=120	=120
4DD/ 4D/	8f#/L	.
.	8d/J)	.
8r	8ff#`\ 8aa`\L	.
8d`\	8dd`\ 8ff#`\J	.
=121	=121	=121
8A\L	8ee\ (8gg\L	.
&(8d\J&)	8dd\ 8ff#\J)	.
4r	8r	.
.	(32dd\LLL	.
.	32ff#\	.
.	32aa\	.
.	32ddd\JJJ	.
=122	=122	=122
8r	4.ccn\)	.
8F#\ 8d\L	.	.
8F#\ 8d\J	.	.
8r	(32cccn\LLL	.
.	32aa\	.
.	32ff#\	.
.	32cc\JJJ	.
=123	=123	=123
8r	4.b\)	.
8G\ 8d\L	.	.
8G\ 8d\J	.	.
8r	(32b\LLL	.
.	32dd\	.
.	32gg\	.
.	32bb\JJJ	.
=124	=124	=124
4A\	8ff#`\ 8aa`\L)	.
.	8dd`\ 8ff#`\J	.
4AA/	8ee`\ 8gg`\L	.
.	8cc#`\ 8ee`\J	.
=125	=125	=125
4D\	4cc#\ (4ee\	.
&(8DD/&)	8dd\ 8ff#\)	.
8r	(32dd\LLL	.
.	32ff#\	.
.	32aa\	.
.	32ddd\JJJ	.
=126	=126	=126
8r	4.ccn\)	.
8F#\ 8d\L	.	.
8F#\ 8d\J	.	.
8r	(32cccn\LLL	.
.	32aa\	.
.	32ff#\	.
.	32cc\JJJ	.
=127	=127	=127
8r	4.b\)	.
8G\ 8d\L	.	.
8G\ 8d\J	.	.
8r	(24bb\LL	.
.	24ccc#\	.
.	24ddd\JJ	.
=128	=128	=128
8A\	24ccc#\LL	.
.	24bb\	.
.	24aa\	.
8r	24gg\	.
.	24ff#\	.
.	24ee\JJ	.
8AA/	24dd\LL	.
.	24cc#\	.
.	24b\JJ	.
8r	32a/LLL	.
.	32g/	.
.	32f#/	.
.	32e/JJJ	.
=129	=129	=129
4DD/	4d/)	.
4r	8r	.
.	(8A/	p
=130	=130	=130
2r	16d/LL	.
.	&(16c#/&)	.
.	16e/	.
.	&(16d/JJ&)	.
.	16f#/LL	.
.	&(16e/&)	.
.	16g/	.
.	&(16f#/JJ&)	.
=131	=131	=131
8r	4d/ 4f#/	.
8G#\L	.	.
&(8A\J&)	&(8c#/&) 8e/)	.
8r	(8A/	.
=132	=132	=132
2r	16e/LL	.
.	&(16d#/&)	.
.	16f#/	.
.	&(16e/JJ&)	.
.	16g/LL	.
.	&(16f#/&)	.
.	16a/	.
.	&(16g/JJ&)	.
=133	=133	=133
8r	4e/ 4g/	.
8A#\L	.	.
&(8B\J&)	&(8dn/&) 8f#/)	.
8r	(8d/	.
=134	=134	=134
2r	16g/LL	<
.	&(16f#/&)	.
.	16a/	.
.	16g/JJ	.
.	16b\LL	.
.	&(16a\&)	.
.	16ccn\	.
.	&(16b\JJ&)	.
=135	=135	=135
(16G\LL	8b`\L)	mf
16d\	.	.
16G\	(16b\L	.
16d\JJ	16dd\JJ	.
16F#\LL	8a/)	.
16d\	.	.
16F#\	8r	.
16d\JJ	.	.
=136	=136	=136
16B\LL	8g`/L	.
16d\	.	.
16B\	16g/L	.
16d\JJ	16b/JJ	.
16A\LL	&(8f#/&)	.
16d\	.	.
16A\	8r	.
16d\JJ	.	.
=137	=137	=137
(16G\LL)	8b`\L	.
16d\	.	.
16G\	16b\L	.
16d\JJ	16dd\JJ	.
16F#\LL	&(8a/&)	.
16d\	.	.
16F#\	8r	.
16d\JJ	.	.
=138	=138	=138
16B\LL	8g`/L	.
16d\	.	.
16B\	16g/L	.
16d\JJ	16b/JJ	.
16A\LL	&(8f#/&)	.
16d\	.	.
16A\	8r	.
16d\JJ	.	.
=139	=139	=139
4G\)	16d#/LL	<
.	16e/	.
.	16f#/	.
.	16g/JJ	.
8r	16a#/LL	.
.	16b/	.
8GG/ 8G/	16g/	.
.	16e/JJ	.
=140	=140	=140
[2AA/ (2F#/	2dn/	>
=141	=141	=141
8AA/] 8E/)	&(8c#/&)	.
8r	8r	.
4r	8r	.
.	32A/LLL	f
.	32c#/	.
.	32e/	.
.	32a/JJJ	.
=142	=142	=142
8AA`\ 8C#`\ 8E`\ 8G`\	&(8e`/&)	.
8r	(32e\LLL	.
.	32g\	.
.	32cc#\	.
.	32ee\JJJ	.
8AA`\ 8C#`\ 8E`\ 8G`\	8cc#`\)	.
8r	(32g\LLL	.
.	32cc#\	.
.	32ee\	.
.	32gg\JJJ	.
=143	=143	=143
8AA`\ 8C#`\ 8E`\ 8G`\	8ee`\)	.
8r	8r	.
4r	8r	.
.	(32g/LLL	mf
.	32e/	.
.	32c#/	.
.	32A/JJJ	.
=144	=144	=144
16AA/LL	2G/	.
16E/	.	.
16D/	.	.
16E/JJ	.	.
16C#/LL	.	.
16E/	.	.
16AA/	.	.
16C#/JJ	.	.
=145	=145	=145
&(4D/&)	16F#/LL)	.
.	16d/	.
.	16c#/	.
.	16d/JJ	.
4r	16e/LL	.
.	16d/	.
.	16c#/	.
.	16d/JJ	.
=146	=146	=146
16D\LL	(2cn/	.
16A\	.	.
16G\	.	.
16A\JJ	.	.
16F#\LL	.	.
16A\	.	.
16D\	.	.
16F#\JJ	.	.
=147	=147	=147
&(4G\&)	16B/LL)	.
.	(16e/	.
.	16d#/	.
.	16e/JJ	.
4r	16f#/LL	.
.	16e/	.
.	16d#/	.
.	16e/JJ	.
=148	=148	=148
16E\LL	2dn/	.
16B\	.	.
16A\	.	.
16B\JJ	.	.
16G#\LL	.	.
16B\	.	.
16E\	.	.
16G#\JJ	.	.
=149	=149	=149
&(4A\&)	16c#/LL)	.
.	(16a/	.
.	16g#/	.
.	16a/JJ	.
4r	16b/LL	.
.	16a/	.
.	16g#/	.
.	16a/JJ	.
*clefG2	*	*
=150	=150	=150
(16B/LL	8g#\L	.
16fn/	.	.
16B/	8dd\J)	.
16f/JJ	.	.
16B/LL	8r	.
16f/	.	.
16B/	8g#/	.
16f/JJ	.	.
=151	=151	=151
16c#/LL	8a`\L	.
16e/	.	.
16c#/	16a\L	.
16e/JJ	16ee\JJ	.
16c#/LL	&(8a`/L&)	.
16e/	.	.
16c#/	8a`/J	.
16e/JJ	.	.
=152	=152	=152
(16B/LL)	8g#\L	.
16fn/	.	.
16B/	&(8dd\J&)	.
16f/JJ	.	.
16B/LL	8r	.
16f/	.	.
16B/	8g#/	.
16f/JJ	.	.
=153	=153	=153
16c#/LL	&(8a`\L&)	.
16e/	.	.
16c#/	16a\L	.
16e/JJ	16ee\JJ	.
16c#/LL	&(8a`/L&)	.
16e/	.	.
16c#/	8gn`/J	.
16e/JJ	.	.
=154	=154	=154
(16d/LL)	8f#`\L	.
16f#/	.	.
16d/	8aa`\J	.
16f#/JJ	.	.
16d/LL	8r	.
16f#/	.	.
16d/	8dd\	.
16f#/JJ	.	.
=155	=155	=155
16e/LL	&(8cc#`\L&)	<
16g/	.	.
16e/	16cc#\L	.
16g/JJ	16aa\JJ	.
16e/LL	&(8cc#`\L&)	.
16g/	.	.
16e/	8cc#`\J	.
16g/JJ	.	.
=156	=156	=156
(16f#/LL)	8dd`\L	.
16a/	.	.
16f#/	16dd\L	.
16a/JJ	16aa\JJ	.
16f#/LL	&(8dd`\L&)	.
16a/	.	.
16f#/	8dd`\J	.
16a/JJ	.	.
=157	=157	=157
16c#/LL	8ee`\L	.
16a/	.	.
16c#/	16ee\L	.
16a/JJ	16aa\JJ	.
16c#/LL	&(8ee`\L&)	.
16a/	.	.
16c#/	8gg`\J	.
16a/JJ	.	.
=158	=158	=158
4d/)	16ff#\LL	f
.	16gg\	.
.	16aa\	.
.	16ff#\JJ	.
4r	16ee\LL	.
.	16dd\	.
.	16cc#\	.
.	16b\JJ	.
=159	=159	=159
4c#/ 4e/	16a/LL	.
.	16g#/	.
.	16a/	.
.	16b/JJ	.
4r	16a/LL	.
.	16gn/	.
.	16f#/	.
.	16e/JJ	.
*clefF4	*	*
=160	=160	=160
4D\ 4d\	16f#/LL	.
.	16g/	.
.	16a/	.
.	16f#/JJ	.
4r	16e/LL	.
.	16d/	.
.	16c#/	.
.	16B/JJ	.
=161	=161	=161
16A\LL	2r	.
16G#\	.	.
16A\	.	.
16B\JJ	.	.
16A\LL	.	.
16Gn\	.	.
16F#\	.	.
16E\JJ	.	.
=162	=162	=162
4D\	(16ff#\LL	.
.	16gg\	.
.	16aa\	.
.	16ff#\JJ	.
4r	16ee\LL	.
.	16dd\	.
.	16cc#\	.
.	16dd\JJ	.
*clefG2	*	*
=163	=163	=163
4g/	16bb\LL	.
.	16ccc#\	.
.	16ddd\	.
.	16bb\JJ	.
4r	16aa\LL	.
.	16gg\	.
.	16ff#\	.
.	16ee\JJ	.
=164	=164	=164
4G/	16dd#\LL	.
.	16ee\	.
.	16ff#\	.
.	16ee\JJ)	.
4r	(16gg\LL	.
.	16ff#\)	.
.	(16aa\	.
.	16gg\JJ)	.
=165	=165	=165
2r	8bb'\	.
.	8r	.
.	(16aa\LL	.
.	16gg\	.
.	16ff#\	.
.	16ee\JJ	.
*clefF4	*	*
=166	=166	=166
*^	*	*
4.d/	8r	4dd\	.
.	8F#\L	.	.
.	8G\	4ee\	.
8c#/	8A\J	.	.
=167	=167	=167	=167
&(8d/&)	8d\	(16ff#\LL)	.
.	.	16gg\	.
8r	4.r	16aa\	.
.	.	16ff#\JJ	.
*v	*v	*	*
*clefG2	*	*
*^	*	*
8f#/	.	16ee\LL	.
.	.	16dd\	.
8r	.	16cc#\	.
.	.	16dd\JJ	.
*v	*v	*	*
=168	=168	=168
16g/LL	16bb\LL	.
16a/	16ccc#\	.
16b/	16ddd\	.
16a/JJ	16ccc#\JJ	.
16g/LL	16bb\LL	.
16f#/	16aa\	.
16e/	16gg\	.
16d/JJ	16ff#\JJ	.
=169	=169	=169
&(8c#/&)	(16ee\LL)	.
.	16ff#\	.
8r	16gg\	.
.	16ee\JJ	.
8e/	16dd\LL	.
.	16cc#\	.
8r	16b\	.
.	16cc#\JJ	.
=170	=170	=170
16f#/LL	16aa\LL	.
16g/	16bb\	.
16a/	16ccc#\	.
16g/JJ	16bb\JJ	.
16f#/LL	16aa\LL	.
16e/	16gg\	.
16d/	16ff#\	.
16c#/JJ	16ee\JJ	.
=171	=171	=171
&(8B/&)	(16dd\LL)	.
.	16ee\	.
8r	16ff#\	.
.	16dd\JJ	.
8d/	16cc#\LL	.
.	16b\	.
8r	16a#\	.
.	16b\JJ	.
=172	=172	=172
16e/LL	16gg\LL	.
16f#/	16aa\	.
16g/	16bb\	.
16f#/JJ	16aa\JJ	.
16e/LL	16gg\LL	.
16d/	16ff#\	.
16c#/	16ee\	.
16B/JJ	16dd\JJ	.
=173	=173	=173
&(8A/&)	16cc#\LL	.
.	16dd\	.
8r	16ee\	.
.	16dd\JJ	.
8c#/	16cc#/LL	.
.	16b/	.
8r	16a/	.
.	16g/JJ	.
=174	=174	=174
4d/	(16f#/LL)	.
.	16g/	.
.	16a/	.
.	16f#/JJ	.
4r	16e/LL	.
.	16d/	.
.	16c#/	.
.	16d/JJ	.
*clefF4	*	*
=175	=175	=175
4G\	16b\LL	.
.	16cc#\	.
.	16dd\	.
.	16b\JJ	.
4r	16a/LL	.
.	16g/	.
.	16f#/	.
.	16e/JJ	.
=176	=176	=176
4GG/	16d#/LL	.
.	16e/	.
.	16f#/	.
.	16e/JJ	.
4r	(16g/LL)	.
.	16f#/)	.
.	16a/	.
.	16g/JJ	.
=177	=177	=177
2r	8b'\	.
.	8r	.
.	(16gg\LL	p
.	16ff#\)	.
.	(16aa\	.
.	16gg\JJ)	.
=178	=178	=178
2r;	8bb'\	.
.	8r;	.
*	*clefF4	*clefF4
.	(16G\LL	pp
.	16F#\	.
.	16A\	.
.	16G\JJ	.
=179	=179	=179
4r	8B\)	.
.	8r	.
8r;	8r;	.
*	*clefG2	*clefG2
.	(dq/	.
8r	8dd#\)	f
=180	=180	=180
.	eq/	.
2r	(8ee\L	.
.	f#q/	.
.	(8ff#\J)	.
.	gq/	.
.	8gg\L)	.
.	(aq/	.
.	8aa#\J)	.
=181	=181	=181
.	(bq/	.
2r	(8bb\L)	.
.	cc#q/	.
.	(8ccc#\J)	.
.	ddq/	.
.	8ddd\L)	.
.	(gq/	.
.	8gg#\J)	.
*clefG2	*	*
=182	=182	=182
.	(aq/	.
8A/ 8d/ 8f#/L	(4.aa\)	.
8A/ 8d/ 8f#/	.	.
8A/ 8d/ 8f#/	.	.
8A/ 8d/ 8f#/J	32ggn\LLL	.
.	32ff#\	.
.	32ee\	.
.	32dd\JJJ	.
=183	=183	=183
8A/ 8c#/ 8g/L	2ee\	.
8A/ 8c#/ 8g/	.	.
8A/ 8c#/ 8g/	.	.
8A/ 8c#/ 8g/J	.	.
*clefF4	*	*
=184	=184	=184
(16D\LL	4dd\)	.
16d\	.	.
16c#\	.	.
16d\JJ	.	.
16F#\LL	8r	.
16d\	.	.
16c#\	8a/	.
16d\JJ	.	.
=185	=185	=185
16G\LL	8b/L	.
16d\	.	.
16F#\	&(8a/J&)	.
16d\JJ	.	.
16G\LL	8b/L	.
16d\	.	.
16F#\	&(8a/J&)	.
16d\JJ	.	.
=186	=186	=186
4E\ 4c#\)	4a\ 4cc#\ 4ee\ 4gg\	.
8r	8r	.
8D\ 8d\	8ff#\	.
=187	=187	=187
8G\ 8B\	(8ee\L	.
8r	8gg\J)	.
8AA\ 8A\	(8a/L	.
8r	8gn/ 8cc#/J	.
=188	=188	=188
(16D\LL	4f#/) 4dd/	.
16d\	.	.
16c#\	.	.
16d\JJ	.	.
16F#\LL	8r	.
16d\	.	.
16c#\	8a/	.
16d\JJ	.	.
=189	=189	=189
16G\LL	8b/L	.
16d\	.	.
16F#\	&(8a/J&)	.
16d\JJ	.	.
16G\LL	8b/L	.
16d\	.	.
16F#\	&(8a/J&)	.
16d\JJ	.	.
=190	=190	=190
4E\ 4c#\)	4a\ 4cc#\ 4ee\ 4gg\	.
8r	8r	.
8D\ 8d\	8ff#\	.
=191	=191	=191
8G\ 8B\	(8ee\L	.
8r	8gg\J)	.
8A\ 8c#\	(8a/L	.
8r	8gn/ 8cc#/J	.
=192	=192	=192
8D\ 8d\	8f#/) 8dd/	.
8r	8r	.
8AA\ 8G\	16r	.
.	(16A/LL	p
8r	16c#/	.
.	16a/JJ)	.
=193	=193	=193
8AA/ 8F#/	16r	.
.	(16A/LL	.
8r	16d/	.
.	16a/JJ)	.
8AA/ 8E/	16r	.
*	*clefF4	*clefF4
.	(16E\LL	.
8r	16G\	.
.	16c#\JJ	.
=194	=194	=194
4DD/ 4D/	4F#\ 4d\)	.
8r	8r	.
==	==	==
*-	*-	*-
!!!ENC: Craig Stuart Sapp
!!!END: 2009/08/27/
